svg/thermometer_water.svg

<svg xmlns="http://www.w3.org/2000/svg" viewBox="0 0 24 24"><path d="M10 13V5c0-1.66-1.34-3-3-3S4 3.34 4 5v8c-2.21 1.66-2.66 4.79-1 7s4.79 2.66 7 1 2.66-4.79 1-7a4.7 4.7 0 0 0-1-1M7 4c.55 0 1 .45 1 1v3H6V5c0-.55.45-1 1-1m11 3s-4 4.34-4 7.07c0 5.24 8 5.24 8 0C22 11.34 18 7 18 7"/></svg>

<svg xmlns="http://www.w3.org/2000/svg" id="mdi-thermometer-water" viewBox="0 0 24 24"><path d="M10 13V5C10 3.34 8.66 2 7 2S4 3.34 4 5V13C1.79 14.66 1.34 17.79 3 20S7.79 22.66 10 21 12.66 16.21 11 14C10.72 13.62 10.38 13.28 10 13M7 4C7.55 4 8 4.45 8 5V8H6V5C6 4.45 6.45 4 7 4M18 7C18 7 14 11.34 14 14.07C14 19.31 22 19.31 22 14.07C22 11.34 18 7 18 7Z" /></svg>
